X:136
T: Der Spielmannssohn
N: Q0062J
O: Mitteleuropa, Deutschland / Frankreich, Lothringen
N: Ersten Notenwert der 2. bis 4. Zeile rhythmisch korrigiert.
N: In der Edition untextiert.
R: Ballade, Verfuehrung, Standesunterschied, Strafe, Gnade
M: 6/8
L: 1/16
K: Bb
f2 | e2d2c2B2B2B2 | c2c2c2F4
F2 | B4B2c2c2c2 | f2f2f2c4
F2 | B4B2c2c2c2 | f2f2f2c4
F2 | B4B2c2c2c2 | f2f2f2c4
f2 | e2d2c2A2B2B2 | c2c2c2F4
F2 | B2BBB2A2B2c2 | f6c4

@@@ Tune index: 1012
